X:1
T:Elijah’s God Still Lives
T:Elijah’s God Still Lives
T:William Grum
T:William Grum, 1902
T:Public Domain Courtesy of the Cyber Hymnal™
T:Public Domain Courtesy of the Cyber Hymnal™
C:William Grum
Z:Public Domain
Z:Courtesy of the Cyber Hymnal™
%%score 1 ( 2 3 )
L:1/8
Q:1/4=97
M:3/4
K:Ab
V:1 treble 
V:2 bass 
V:3 bass 
V:1
 [CE] | [CE]>[CE] [CE]3 [CE] | [DF]>[EG] [FA]3 [DF] | [CE]>[CE] [CA]3 [Ec] | [Ec] [EB]4 [DE] | %5
w: 1.~E-|li- jah made a|sa- cri- fice To|of- fer to Je-|ho- vah; It|
w: 2.~E-|li- jah’s God still|lives to- day And|an- swers still by|fi- re; My|
w: 3.~E-|li- jah’s God still|lives to- day And|an- swers still by|pow- er, As|
 [CE]>[CE] [CE]3 [CE] | [DF]>[EG] [FA]3 [DF] | [CE]>[CE] [DG]3 [DB] | [DB] [CA]4 [CA] | %9
w: had been wet with|wa- ter thrice, Baal’s|sa- cri- fice was|o- ver. E-|
w: friend, just let Him|have His way; He’ll|grant your heart’s de-|si- re. Con-|
w: when E- li- jah|prayed for rain, God|an- swered with a|show- er. If|
 [DG][DA] [DB]3 [DB] | [CA][DB] [Ec]3 [EB] | [FA][=EB] [FA]3 [DF] | [DF][DF] [CE]3 [CE] | %13
w: li- jah prayed: the|fire came down And|licked the wa- ter|all a- round; So|
w: sume the sa- cri-|fice you make, And|bid your slum- bering|soul a- wake; The|
w: you would have your|soul re- freshed With|rain that falls from|He- av- en, You|
 [EA][EA] [EB]3 [EB] | [Ec][Ed] [Ee]3 [Ec] | [=DA][DA] [Ec]3 [_DB] | [DB]2 [CA]3 || %17
w: doubt- ing ones be-|lieved, and found E-|li- jah’s God was|liv- ing.|
w: chains of in- bred|sin will break; E-|li- jah’s God is|liv- ing.|
w: must “pray through” like|all the rest, And|show- ers shall be|giv- en.|
"^Refrain" [_GA] | [Fd]>[Fd] [Fd]3 [Fd] | [_Fd]>[Ec] [Ec]3 [=EB] | [FA]>[FA] [=DA]3 [DA] | %21
w: ||||
w: E-|li- jah’s God still|lives to- day, To|take the guilt of|
w: ||||
 [=Dc]>[DB] [EB]3 [CE] | [CE][CA] [Ec]3 [Ec] | [_GB][GA] [Fd]3 [DF] | %24
w: |||
w: sin a- way; And|when I pray my|heart’s de- sire, Up-|
w: |||
 [CE][CE] [CA][Ec] !fermata![Ec]>[DB] | [CA]4 z |] %26
w: ||
w: on my soul He sends the|fire.|
w: ||
V:2
 [A,,A,] | [A,,A,]>[A,,A,] [A,,A,]3 [A,,A,] | [D,A,]>[D,A,] [D,A,]3 [D,A,] | %3
 [A,,A,]>[A,,A,] [A,,A,]3 [E,A,] | [E,A,] [E,G,]4 [E,G,] | [A,,A,]>[A,,A,] [A,,A,]3 [A,,A,] | %6
 [D,A,]>[D,A,] [D,A,]3 [A,,A,] | [E,A,]>[E,A,] [E,A,]3 [E,G,] | [E,G,] [A,,A,]4 [A,,A,] | %9
 [E,B,][E,A,] [E,G,]3 [E,G,] | [A,,A,][A,,A,] [A,,A,]3 [C,A,] | [D,A,][D,A,] [D,A,]3 [D,A,] | %12
 [A,,A,][A,,A,] [A,,A,]3 [A,,A,] | [C,A,][C,A,] [E,G,]3 [E,G,] | A,[A,B,] [A,C]3 A, | %15
 [_F,A,][F,A,] [E,A,]3 [E,G,] | [E,G,]2 [A,,A,]3 || [C,A,] | [D,A,]>[D,A,] [D,A,]3 [D,A,] | %19
 [D,A,]>[A,,A,] [A,,A,]3 [C,G,] | [F,A,]>[F,C] [F,B,]3 [F,B,] | [F,A,]>[F,A,] [E,G,]3 [E,G,] | %22
 [A,,A,][A,,A,] [A,,A,]3 [A,,A,] | [C,A,][C,A,] [D,A,]3 [D,A,] | %24
 [E,A,][E,A,] [E,A,][E,A,] !fermata![E,G,]>[E,G,] | [A,,A,]4 z |] %26
V:3
 x | x6 | x6 | x6 | x6 | x6 | x6 | x6 | x6 | x6 | x6 | x6 | x6 | x6 | A, x3 A, x | x6 | x5 || x | %18
 x6 | x6 | x6 | x6 | x6 | x6 | x6 | x5 |] %26

